markup/images/icon33.svg

<svg xmlns="http://www.w3.org/2000/svg" width="38" height="34"><path fill-rule="evenodd" fill="#FFF" d="M34.282 24.587c-.297 3.355-1.843 5.833-4.609 7.375C27.213 33.333 23.722 34 19 34s-8.213-.667-10.673-2.038c-2.766-1.542-4.312-4.02-4.609-7.375C1.611 24.239 0 22.418 0 20.229c0-2.17 1.584-3.978 3.664-4.348v-.654C3.664 6.831 10.544 0 19 0s15.335 6.831 15.335 15.227v.654c2.081.37 3.665 2.178 3.665 4.348 0 2.189-1.612 4.01-3.718 4.358zM3.664 17.48a2.866 2.866 0 0 0-2.093 2.749c0 1.306.887 2.41 2.093 2.75V17.48zm29.101-2.253c0-7.474-6.074-13.564-13.577-13.665a8.016 8.016 0 0 1 1.855 1.305c1.372 1.299 2.191 3.04 2.191 4.659 0 2.577-2.111 4.673-4.706 4.673-2.162 0-3.922-1.747-3.922-3.894 0-1.804 1.478-3.272 3.295-3.272.434 0 .785.349.785.78 0 .431-.351.78-.785.78a1.72 1.72 0 0 0-1.724 1.712 2.345 2.345 0 0 0 2.351 2.334c1.729 0 3.135-1.397 3.135-3.113 0-2.241-2.299-5.336-6.618-5.39-5.668 1.691-9.81 6.919-9.81 13.091v8.133c0 3.425 1.263 5.794 3.861 7.242 2.219 1.237 5.459 1.838 9.904 1.838s7.685-.601 9.904-1.838c2.598-1.448 3.861-3.817 3.861-7.242v-8.133zm1.57 2.253v5.499a2.866 2.866 0 0 0 2.094-2.75 2.866 2.866 0 0 0-2.094-2.749zm-7.411 4.883c-.833 0-1.509-.67-1.509-1.498 0-.827.676-1.498 1.509-1.498.833 0 1.509.671 1.509 1.498 0 .828-.676 1.498-1.509 1.498zM19 30.663c-3.235 0-5.867-2.614-5.867-5.826 0-.43.352-.78.786-.78h10.162c.434 0 .786.35.786.78 0 3.212-2.632 5.826-5.867 5.826zm.111-5.046v.738c0 .431-.352.78-.785.78a.783.783 0 0 1-.786-.78v-.738h-2.764A4.295 4.295 0 0 0 19 29.103a4.295 4.295 0 0 0 4.224-3.486h-4.113zm-8.035-3.254c-.834 0-1.509-.67-1.509-1.498 0-.827.675-1.498 1.509-1.498.833 0 1.508.671 1.508 1.498 0 .828-.675 1.498-1.508 1.498z"/></svg>

<svg 
 xmlns="http://www.w3.org/2000/svg"
 xmlns:xlink="http://www.w3.org/1999/xlink"
 width="38px" height="34px">
<path fill-rule="evenodd"  fill="rgb(255, 255, 255)"
 d="M34.282,24.587 C33.985,27.942 32.439,30.420 29.673,31.962 C27.213,33.333 23.722,34.000 19.000,34.000 C14.278,34.000 10.787,33.333 8.327,31.962 C5.561,30.420 4.015,27.942 3.718,24.587 C1.611,24.239 -0.000,22.418 -0.000,20.229 C-0.000,18.059 1.584,16.251 3.664,15.881 L3.664,15.227 C3.664,6.831 10.544,0.000 19.000,0.000 C27.456,0.000 34.335,6.831 34.335,15.227 L34.335,15.881 C36.416,16.251 38.000,18.059 38.000,20.229 C38.000,22.418 36.388,24.239 34.282,24.587 ZM3.664,17.480 C2.458,17.820 1.571,18.924 1.571,20.229 C1.571,21.535 2.458,22.639 3.664,22.979 L3.664,17.480 ZM32.765,15.227 C32.765,7.753 26.691,1.663 19.188,1.562 C19.869,1.911 20.494,2.348 21.043,2.867 C22.415,4.166 23.234,5.907 23.234,7.526 C23.234,10.103 21.123,12.199 18.528,12.199 C16.366,12.199 14.606,10.452 14.606,8.305 C14.606,6.501 16.084,5.033 17.901,5.033 C18.335,5.033 18.686,5.382 18.686,5.813 C18.686,6.244 18.335,6.593 17.901,6.593 C16.950,6.593 16.177,7.361 16.177,8.305 C16.177,9.592 17.232,10.639 18.528,10.639 C20.257,10.639 21.663,9.242 21.663,7.526 C21.663,5.285 19.364,2.190 15.045,2.136 C9.377,3.827 5.235,9.055 5.235,15.227 L5.235,23.360 C5.235,26.785 6.498,29.154 9.096,30.602 C11.315,31.839 14.555,32.440 19.000,32.440 C23.445,32.440 26.685,31.839 28.904,30.602 C31.502,29.154 32.765,26.785 32.765,23.360 L32.765,15.227 ZM34.335,17.480 L34.335,22.979 C35.542,22.639 36.429,21.535 36.429,20.229 C36.429,18.924 35.542,17.820 34.335,17.480 ZM26.924,22.363 C26.091,22.363 25.415,21.693 25.415,20.865 C25.415,20.038 26.091,19.367 26.924,19.367 C27.757,19.367 28.433,20.038 28.433,20.865 C28.433,21.693 27.757,22.363 26.924,22.363 ZM19.000,30.663 C15.765,30.663 13.133,28.049 13.133,24.837 C13.133,24.407 13.485,24.057 13.919,24.057 L24.081,24.057 C24.515,24.057 24.867,24.407 24.867,24.837 C24.867,28.049 22.235,30.663 19.000,30.663 ZM19.111,25.617 L19.111,26.355 C19.111,26.786 18.759,27.135 18.326,27.135 C17.892,27.135 17.540,26.786 17.540,26.355 L17.540,25.617 L14.776,25.617 C15.146,27.598 16.899,29.103 19.000,29.103 C21.101,29.103 22.854,27.598 23.224,25.617 L19.111,25.617 ZM11.076,22.363 C10.242,22.363 9.567,21.693 9.567,20.865 C9.567,20.038 10.242,19.367 11.076,19.367 C11.909,19.367 12.584,20.038 12.584,20.865 C12.584,21.693 11.909,22.363 11.076,22.363 Z"/>
</svg>
